X:7
T:Cross Hands, The
M:C
L:1/8
B:Thompson's Compleat Collection of 200 Favourite Country Dances, vol. 3 (London, 1773)
Z:Transcribed and edited by Flynn Titford-Mock, 2007
Z:abc's:AK/Fiddler's Companion
K:D
a | fafd egec | defd A3G | FGAB cdef | gab(d d)cBA | fafd egec |
defd A3 G | FAdf (ga/b/)ag | fedc d3::A | AGFG FAdf | gfe(d d)cBA |
B2 cd efga | bged "tr"d2c2 | a3b gfed | efge dcBA | BGFE (ga/b/)ag | fedc d3 :|

